img/news/message.svg

<svg width="14" height="15" viewBox="0 0 14 15" fill="none" xmlns="http://www.w3.org/2000/svg">
<path d="M11.1242 4.722C10.1671 3.75862 8.90386 3.15937 7.55226 3.02755C6.20067 2.89574 4.84544 3.23962 3.72021 3.99991C2.59498 4.7602 1.77027 5.88925 1.38826 7.19242C1.00626 8.49559 1.09089 9.89121 1.62757 11.1387C1.6835 11.2546 1.70186 11.3851 1.68007 11.512L1.16674 13.9795C1.14696 14.0741 1.151 14.1721 1.17849 14.2648C1.20598 14.3574 1.25606 14.4418 1.32424 14.5103C1.38012 14.5658 1.44666 14.6094 1.51985 14.6385C1.59303 14.6675 1.67135 14.6815 1.75007 14.6795H1.86674L4.3634 14.1778C4.49029 14.1626 4.61897 14.1807 4.73674 14.2303C5.98419 14.767 7.37981 14.8516 8.68298 14.4696C9.98615 14.0876 11.1152 13.2629 11.8755 12.1377C12.6358 11.0125 12.9797 9.65723 12.8478 8.30563C12.716 6.95404 12.1168 5.69079 11.1534 4.73366L11.1242 4.722ZM4.66674 9.4295C4.55136 9.4295 4.43858 9.39529 4.34265 9.33119C4.24672 9.26709 4.17196 9.17599 4.12781 9.0694C4.08365 8.96281 4.0721 8.84552 4.09461 8.73236C4.11712 8.61921 4.17268 8.51527 4.25426 8.43368C4.33584 8.3521 4.43978 8.29655 4.55293 8.27404C4.66609 8.25153 4.78338 8.26308 4.88997 8.30723C4.99656 8.35139 5.08766 8.42615 5.15176 8.52208C5.21586 8.61801 5.25007 8.73079 5.25007 8.84616C5.25007 9.00087 5.18861 9.14925 5.07921 9.25864C4.96982 9.36804 4.82145 9.4295 4.66674 9.4295ZM7.00007 9.4295C6.8847 9.4295 6.77191 9.39529 6.67599 9.33119C6.58006 9.26709 6.50529 9.17599 6.46114 9.0694C6.41699 8.96281 6.40544 8.84552 6.42794 8.73236C6.45045 8.61921 6.50601 8.51527 6.58759 8.43368C6.66917 8.3521 6.77311 8.29655 6.88627 8.27404C6.99942 8.25153 7.11671 8.26308 7.2233 8.30723C7.32989 8.35139 7.421 8.42615 7.48509 8.52208C7.54919 8.61801 7.5834 8.73079 7.5834 8.84616C7.5834 9.00087 7.52194 9.14925 7.41255 9.25864C7.30315 9.36804 7.15478 9.4295 7.00007 9.4295ZM9.3334 9.4295C9.21803 9.4295 9.10525 9.39529 9.00932 9.33119C8.91339 9.26709 8.83862 9.17599 8.79447 9.0694C8.75032 8.96281 8.73877 8.84552 8.76128 8.73236C8.78379 8.61921 8.83934 8.51527 8.92092 8.43368C9.0025 8.3521 9.10644 8.29655 9.2196 8.27404C9.33276 8.25153 9.45004 8.26308 9.55663 8.30723C9.66322 8.35139 9.75433 8.42615 9.81843 8.52208C9.88252 8.61801 9.91674 8.73079 9.91674 8.84616C9.91674 9.00087 9.85528 9.14925 9.74588 9.25864C9.63649 9.36804 9.48811 9.4295 9.3334 9.4295Z" fill="#F25822"/>
</svg>

<svg width="14" height="15" fill="none" xmlns="http://www.w3.org/2000/svg"><path d="M11.124 4.722a5.833 5.833 0 00-9.496 6.417.618.618 0 01.052.373l-.513 2.467a.583.583 0 00.353.66.585.585 0 00.23.04h.117l2.496-.501a.736.736 0 01.374.052 5.833 5.833 0 006.416-9.496l-.029-.012zM4.667 9.43a.583.583 0 110-1.167.583.583 0 010 1.167zM7 9.43a.583.583 0 110-1.167.583.583 0 010 1.167zm2.333 0a.583.583 0 110-1.167.583.583 0 010 1.167z" fill="#F25822"/></svg>
